X:1
T:Title
%%score { ( 1 3 ) | 2 }
L:1/8
Q:1/4=100
M:4/4
K:Ab
V:1 treble nm="Grand Piano"
V:3 treble 
V:2 bass 
V:1
 [CE]2 [DF][DF] [CE]3 [Ec] | [FB][FA][EG][DF] [DF]2 [CE]2 | G2 AA G3 d | [Ec]cBA B3 _c | %4
w: A.~Beirly * * * *||||
 [Ec]2 [Ec][Ec] [FA]2 [FA]2 | z4 z2 B2[K:bass] | [_Ge]2 [Fd][Fc] [FB][Fd][Fc][FB] | z2 G2 z4 |] %8
w: ||||
V:2
 [A,,A,]2 [A,,A,][A,,A,] [A,,A,]3 [A,,A,] | [D,A,][D,A,][D,A,][D,A,] [A,,A,]2 [A,,A,]2 | %2
 [E,B,E]2 [E,CE][E,CE] [E,B,E]3 [E,G,E] | [A,,A,][A,E][G,B,E][F,B,=D] [E,G,E]4 | %4
 [A,,A,]2 [A,,A,][A,,A,] [D,A,]2 [D,C]2 | [D,B,][C,=A,][B,,B,][B,,_A,] [E,A,E]2 .[E,G,E]2 | %6
 [C,A,]2 [F,=A,][E,A,] [D,B,][B,,B,][C,A,][D,B,] | [E,CE]2 .[E,B,E]2 [A,,A,]4 |] %8
V:3
 x8 | x8 | x8 | x8 | x8 | [FB][Fc][Fd][=Dc] c2 z[K:bass] D, | x8 | A2 z D [CA]4 |] %8

